X:1
T:Derwentwater's Farewell
M:4/4
L:1/8
K:G
 D2| G3 F G2 B2| AG E2 D2 G2| AB cA d2 cB| A4 z2| G2|A-Bc-A d2 e2|\
d-c AD GG FG| A3B-AG-E ^C| D4 z2||
